X:1
T:Title
%%score [ ( 1 2 ) ( 3 4 ) ]
L:1/8
Q:1/4=90
M:4/4
K:Ab
V:1 treble nm="Midi_74"
V:2 treble 
V:3 bass nm="Midi_74"
V:4 bass 
V:1
"^Harriet Beecher Stowe\n(1811-96)""^Still, still with Thee""^Joseph Barnby\n(1838-96)" c4 =B2 c2 | %1
 e6 G2 | G2 A2 B2 c2 | c4 F4 || F4 G2 =A2 | B4 c4 | d2 c2 B2 c2 | B8 ||[M:4/4] e4 d2 c2 | d4 B4- | %10
 f2 e2 d2 c2 | d4 B4 || e4 A2 B2 | A2 B2 c2 d2 | B6 A2 | A8 || A4 A4 |] %17
V:2
 E4 E2 E2 | D6 D2 | E2 E2 =E2 E2 | F4 F4 || C4 F2 F2 | F4 E4 | D2 E2 F2 D2 | E8 || %8
[M:4/4] E4 E2 E2 | D4 F4 | F2 F2 F2 E2 | D4 E4 || E2 F2 _G4 | F2 A2 A2 A2 | (A4 G2) A2 | A8 || %16
 F4 E4 |] %17
V:3
 C4 A,2 E,2 | G,6 B,2 | A,2 A,2 A,2 A,2 | A,4 A,4 || =A,4 B,2 C2 | B,4 =A,4 | F,2 =A,2 B,2 _A,2 | %7
 G,8 ||[M:4/4] A,4 =A,2 A,2 | %9
"^1 Still, still with Thee, when purple morning breaketh,\nWhen the bird waketh, and the shadows flee;\nFairer than morning, lovelier than daylight,\nDawns the sweet consciousness, I am with Thee.\n\n2 Alone with Thee, amid the mystic shadows,\nThe solemn hush of nature newly born;\nAlone with Thee in breathless adoration,\nIn the calm dew and freshness of the morn.\n\n3 Still, still with Thee! As to each newborn morning\nA fresh and solemn splendour still is given,\nSo does this blessed consciousness, awaking,\nBreathe each day nearness unto Thee and heaven.\n\n4 So shall it be at last, in that bright morning,\nWhen the soul waketh and life's shadows flee;\nO in that hour, fairer than daylight dawning,\nShall rise the glorious thought, I am with Thee." B,4 B,4 | %10
 =A,2 A,2 A,2 A,2 | B,4 G,4 || A,4 C2 C2 | D2 F2 E2 D2 | D6 C2 | C8 || D4 C4 |] %17
V:4
 A,,4 A,,2 A,,2 | B,,6 B,,2 | C,2 C,2 C,2 C,2 | D,4 D,4 || E,4 E,2 E,2 | D,4 F,4 | %6
 B,,2 C,2 D,2 B,,2 | E,8 ||[M:4/4] C,4 F,2 F,2 | B,,4 D,4 | C,2 C,2 F,2 F,2 | B,,4 (E,2 D,2) || %12
 C,4 A,,2 A,,2 | D,2 D,2 C,2 B,,2 | E,6 A,,2 | A,,8 || D,4 A,,4 |] %17

